X: 5
T: Brenda Stubbert's
R: reel
M: 4/4
L: 1/8
K: Ador
A2BA GAAB|A2Bd eddB|G2BA BGGB|c2BA BGGB|
A2 BA GAAB|A2Bd edde|gedB GABd|e2dB eA A2:|
A2 e2 A2 g2|Aege aged|G2BA BGGB|c2BA BGGB|
A2 e2 A2 g2|Aege agea|gedB GABd|e2dB eA A2|
A2 e2 A2 g2|Aege aged|G2BA BGGB|c2BA BGGB|
A2 BA GAAB|A2Bd edde|gedB GABd|e2dB eA A2||


Tune 727	Setting 21678

